X: 1
T: Draksskeppet
T: the Dragonship
%D:
D: https://music.youtube.com/watch?v=D-3VBi7YHM4&list=RDAMVMD-3VBi7YHM4
R: shottish
S: Fiddle Hell Online 2022-4-2 handout for Swedish Jam led by Bronwyn Bird and Justin Nawn
Z: 2022 John Chambers <jc:trillian.mit.edu>
M: 4/4
L: 1/8
K: Edor
"^A"\
|::: B2 AG E3 E | GG AB c2 dc | B2 AG EE GA |\
     BA AG [1,3 EE GA :|[2,4 EE =FE :|
"^B"\
|::: D2 d2 ed A2 | dc de dc A2 \
| [1,3 D2 d2 dc AB |=c2 c2 cB GE \
:|[2,4 =c2 c2 cB AG | B2 AG A4 :|
